brandFactory_export/3.Masa/Documento_Archivo ok_3Masa.svg

<?xml version="1.0" encoding="UTF-8"?>
<svg width="24px" height="24px" viewBox="0 0 24 24" version="1.1" xmlns="http://www.w3.org/2000/svg" xmlns:xlink="http://www.w3.org/1999/xlink">
    <title>3.Masa/Documento_Archivo ok_3Masa</title>
    <g id="Symbols" stroke="none" stroke-width="1" fill="none" fill-rule="evenodd">
        <g id="3.Masa/Documento_Archivo-ok_3Masa" fill="#5CB615" fill-rule="nonzero">
            <path d="M4.4605042,13.3378151 L5.70756303,14.5915966 L9.1092437,11.1731092 C9.38823529,10.8907563 9.84537815,10.8907563 10.1277311,11.1697479 L10.1310924,11.1731092 C10.4134454,11.4554622 10.4134454,11.9159664 10.1310924,12.1983193 L6.21848739,16.1310924 C5.9394958,16.4134454 5.48571429,16.4134454 5.20336134,16.1344538 L5.2,16.1310924 L3.44201681,14.3663866 C3.15966387,14.0806723 3.15966387,13.6235294 3.44201681,13.3411765 C3.7210084,13.0554622 4.17815126,13.0554622 4.4605042,13.3378151 C4.4605042,13.3344538 4.4605042,13.3378151 4.4605042,13.3378151 L4.4605042,13.3378151 Z M19.405042,6.79327731 L21.5731092,6.79327731 L16.6319328,1.99327731 L16.6319328,4.1210084 C16.6319328,4.91764706 16.8907563,5.58319328 17.3815126,6.05714286 C17.8756303,6.54117647 18.5781513,6.78991597 19.405042,6.79327731 Z M19.3747899,16.3495798 C19.7747899,16.3462185 20.097479,16.0235294 20.097479,15.6235294 C20.097479,15.2235294 19.7781513,14.9008403 19.3781513,14.897479 L12.789916,14.897479 C12.7495798,15.1764706 12.7226891,15.4386555 12.6823529,15.6605042 C12.6352941,15.8957983 12.5613445,16.1277311 12.4605042,16.3462185 L19.3747899,16.3495798 L19.3747899,16.3495798 Z M19.3747899,19.7915966 C19.7747899,19.7915966 20.097479,19.4689076 20.097479,19.0689076 L20.097479,19.0655462 C20.097479,18.6655462 19.7747899,18.3428571 19.3747899,18.3394958 L10.8941176,18.3394958 C10.2789916,18.9008403 9.58655462,19.3848739 8.94789916,19.7915966 L19.3747899,19.7915966 L19.3747899,19.7915966 Z M7.77478992,18.8168067 C7.79159664,18.8067227 7.80168067,18.7966387 7.82184874,18.7865546 C7.98655462,18.692437 8.15798319,18.5848739 8.33277311,18.4672269 C8.38319328,18.4403361 8.42016807,18.4067227 8.46722689,18.3798319 C8.47731092,18.3697479 8.49747899,18.3630252 8.51428571,18.3495798 C8.72605042,18.205042 8.94117647,18.0504202 9.14957983,17.8957983 C9.14957983,17.8957983 9.15966387,17.8957983 9.15966387,17.8857143 C9.36134454,17.7411765 9.55630252,17.5831933 9.73781513,17.4285714 C9.75798319,17.4184874 9.76806723,17.4016807 9.78823529,17.3915966 C9.95966387,17.2470588 10.1243697,17.0890756 10.2789916,16.9445378 C10.2991597,16.9176471 10.3294118,16.8941176 10.3462185,16.8672269 C10.4907563,16.7226891 10.6252101,16.5781513 10.7394958,16.4336134 C10.7596639,16.4033613 10.7798319,16.3731092 10.8,16.3563025 C10.9142857,16.2016807 11.0117647,16.0537815 11.0789916,15.912605 C11.0890756,15.892437 11.0991597,15.8823529 11.1092437,15.8621849 C11.1865546,15.707563 11.2436975,15.5630252 11.2638655,15.4184874 C11.5058824,14.0168067 11.5630252,11.0756303 11.5697479,9.67058824 C10.4033613,9.64033613 9.66386555,9.14957983 8.99831933,8.70252101 C8.84369748,8.60840336 8.7092437,8.5210084 8.56470588,8.4302521 C8.45042017,8.36302521 8.34285714,8.29579832 8.22857143,8.23529412 C8.18487395,8.21848739 8.14453782,8.19831933 8.10420168,8.17815126 C7.97647059,8.11428571 7.84537815,8.0605042 7.71092437,8.01344538 C7.67058824,8.00336134 7.63361345,7.99327731 7.60336134,7.98319328 C7.25042017,7.87563025 6.88403361,7.81512605 6.51428571,7.80840336 L6.50420168,7.80840336 C5.36806723,7.80840336 4.74285714,8.22521008 4.02016807,8.69579832 C3.34453782,9.14957983 2.58487395,9.65378151 1.4487395,9.68403361 C1.45546218,11.0756303 1.51596639,14.010084 1.75798319,15.4016807 C1.99663866,16.8033613 4.67563025,18.594958 6.50420168,19.512605 C6.70588235,19.4184874 6.91764706,19.3008403 7.12941176,19.1831933 C7.34117647,19.0756303 7.56302521,18.9512605 7.77478992,18.8168067 Z M19.3478992,11.405042 L12.9848739,11.405042 C12.9747899,11.8689076 12.9546218,12.3630252 12.9344538,12.8571429 L19.3478992,12.8571429 C19.7478992,12.8571429 20.0705882,12.5310924 20.0705882,12.1344538 L20.0705882,12.1310924 C20.0672269,11.7344538 19.7478992,11.4084034 19.3478992,11.405042 L19.3478992,11.405042 Z M23.3042017,6.45378151 C23.5058824,6.65882353 23.6235294,6.92773109 23.6235294,7.2 L23.6235294,21.9731092 C23.6235294,22.8739496 22.8537815,23.6268908 21.9394958,23.6268908 L7.36134454,23.6268908 C6.46722689,23.6268908 5.68403361,22.8638655 5.68403361,21.9731092 L5.68403361,20.7327731 C4.2789916,20.0033613 0.72605042,17.9529412 0.329411765,15.6605042 C-0.0168067227,13.6806723 -0.00672268908,9.10252101 0.00336134454,8.90756303 C0.00336134454,8.68571429 0.0974789916,8.47394958 0.282352941,8.3394958 C0.457142857,8.20504202 0.682352941,8.15462185 0.897478992,8.20504202 C1.91932773,8.3697479 2.46722689,8 3.22016807,7.49915966 C3.83865546,7.09243697 4.58823529,6.61176471 5.68739496,6.43697479 L5.68739496,1.66386555 C5.68403361,0.793277311 6.48403361,0 7.36134454,0 L16.2386555,0 C16.507563,0 16.7697479,0.107563025 16.9613445,0.302521008 L23.3042017,6.45378151 Z" id="Documento_Archivo-ok_3Masa"></path>
        </g>
    </g>
</svg>

<svg width="24" height="24" viewBox="0 0 24 24" xmlns="http://www.w3.org/2000/svg"><path d="M4.46 13.338l1.248 1.254 3.401-3.419a.721.721 0 011.019-.003l.003.003a.726.726 0 010 1.025l-3.913 3.933a.717.717 0 01-1.015.003l-.003-.003-1.758-1.765a.726.726 0 010-1.025.715.715 0 011.019-.003c0-.004 0 0 0 0zm14.945-6.545h2.168l-4.941-4.8v2.128c0 .797.259 1.462.75 1.936.494.484 1.196.733 2.023.736zm-.03 9.557a.727.727 0 00.003-1.453H12.79c-.04.28-.067.542-.108.764a3.084 3.084 0 01-.221.685l6.914.004zm0 3.442c.4 0 .722-.323.722-.723v-.003c0-.4-.322-.723-.722-.727h-8.48c-.616.562-1.308 1.046-1.947 1.453h10.427zm-11.6-.975c.017-.01.027-.02.047-.03a8.28 8.28 0 00.51-.32c.051-.027.088-.06.135-.087.01-.01.03-.017.047-.03a20 20 0 00.636-.454s.01 0 .01-.01c.201-.145.396-.303.578-.457.02-.01.03-.027.05-.037.172-.145.336-.303.491-.447.02-.027.05-.05.067-.078.145-.144.28-.289.393-.433.02-.03.04-.06.061-.078a2.8 2.8 0 00.279-.443c.01-.02.02-.03.03-.05.078-.155.135-.3.155-.445.242-1.401.299-4.342.306-5.747-1.167-.03-1.906-.521-2.572-.968-.154-.095-.289-.182-.433-.273-.115-.067-.222-.134-.336-.195a1.402 1.402 0 01-.125-.057 3.352 3.352 0 00-.393-.165c-.04-.01-.077-.02-.108-.03a3.986 3.986 0 00-1.089-.175h-.01c-1.136 0-1.761.417-2.484.888-.675.454-1.435.958-2.571.988.006 1.392.067 4.326.309 5.718.239 1.401 2.918 3.193 4.746 4.11.202-.094.414-.211.625-.329.212-.107.434-.232.646-.366zm11.573-7.412h-6.363c-.01.464-.03.958-.05 1.452h6.413c.4 0 .723-.326.723-.723v-.003a.731.731 0 00-.723-.726zm3.956-4.951c.202.205.32.474.32.746v14.773c0 .9-.77 1.654-1.685 1.654H7.361c-.894 0-1.677-.763-1.677-1.654v-1.24c-1.405-.73-4.958-2.78-5.355-5.072-.346-1.98-.336-6.558-.326-6.753 0-.222.094-.434.28-.569a.734.734 0 01.614-.134C1.92 8.37 2.467 8 3.22 7.499c.619-.407 1.368-.887 2.467-1.062V1.664C5.684.794 6.484 0 7.361 0h8.878c.269 0 .53.108.722.303l6.343 6.15z" fill="#5CB615" fill-rule="nonzero"/></svg>
